svg/600/sharp/browse.svg

<svg xmlns="http://www.w3.org/2000/svg" width="48" height="48" viewBox="0 -960 960 960"><path d="M105.869-105.869v-265.349h347.522v265.349H105.869Zm400.74 0V-535h348.087v429.131H506.609ZM380.391-298.782Zm199.218-163.217ZM105.869-425v-429.696h347.522V-425H105.869Zm274.522-73.001Zm126.218-90.781v-265.914h348.087v265.914H506.609Zm73-72.436ZM178.87-178.87h201.521v-119.912H178.87v119.912Zm400.739 0H781.13v-283.129H579.609v283.129ZM178.87-498.001h201.521V-781.13H178.87v283.129Zm400.739-163.217H781.13V-781.13H579.609v119.912Z"/></svg>

<svg xmlns="http://www.w3.org/2000/svg" width="48" height="48" viewBox="0 -960 960 960"><path d="M105.87-105.87v-265.35h347.52v265.35H105.87Zm400.74 0V-535H854.7v429.13H506.61ZM380.39-298.78ZM579.61-462Zm-473.74 37v-429.7h347.52V-425H105.87Zm274.52-73Zm126.22-90.78V-854.7H854.7v265.92H506.61Zm73-72.44ZM178.87-178.87h201.52v-119.91H178.87v119.91Zm400.74 0h201.52V-462H579.61v283.13ZM178.87-498h201.52v-283.13H178.87V-498Zm400.74-163.22h201.52v-119.91H579.61v119.91Z"/></svg>
